src/apps/scalable/cmake.svg

<?xml version="1.0" encoding="UTF-8" standalone="no"?>
<svg
   width="64"
   height="64"
   version="1.1"
   viewBox="0 0 16.933 16.933"
   id="svg259"
   sodipodi:docname="cmake.svg"
   inkscape:version="1.2.1 (9c6d41e410, 2022-07-14, custom)"
   xmlns:inkscape="http://www.inkscape.org/namespaces/inkscape"
   xmlns:sodipodi="http://sodipodi.sourceforge.net/DTD/sodipodi-0.dtd"
   xmlns="http://www.w3.org/2000/svg"
   xmlns:svg="http://www.w3.org/2000/svg">
  <sodipodi:namedview
     id="namedview261"
     pagecolor="#ffffff"
     bordercolor="#000000"
     borderopacity="0.25"
     inkscape:showpageshadow="2"
     inkscape:pageopacity="0.0"
     inkscape:pagecheckerboard="0"
     inkscape:deskcolor="#d1d1d1"
     showgrid="false"
     inkscape:zoom="8.8719804"
     inkscape:cx="21.35938"
     inkscape:cy="27.727744"
     inkscape:window-width="1920"
     inkscape:window-height="1019"
     inkscape:window-x="0"
     inkscape:window-y="31"
     inkscape:window-maximized="1"
     inkscape:current-layer="svg259" />
  <defs
     id="defs239">
    <linearGradient
       id="a"
       x1="8.587"
       x2="8.587"
       y1="15.747"
       y2="1.097"
       gradientTransform="matrix(1.0178 0 0 1.0178 -.15083 -.14268)"
       gradientUnits="userSpaceOnUse">
      <stop
         stop-color="#2e3440"
         offset="0"
         id="stop213" />
      <stop
         stop-color="#4c566a"
         offset="1"
         id="stop215" />
    </linearGradient>
    <linearGradient
       id="linearGradient1902-5"
       x1="176.3"
       x2="176.3"
       y1="-38.658"
       y2="35.521"
       gradientUnits="userSpaceOnUse">
      <stop
         stop-color="#d69a85"
         offset="0"
         id="stop218" />
      <stop
         stop-color="#cb795d"
         offset="1"
         id="stop220" />
    </linearGradient>
    <linearGradient
       id="linearGradient1830-6"
       x1="48.461"
       x2="48.461"
       y1="-3.5809"
       y2="6.0409"
       gradientUnits="userSpaceOnUse">
      <stop
         stop-color="#eceff4"
         offset="0"
         id="stop223" />
      <stop
         stop-color="#d8dee9"
         offset="1"
         id="stop225" />
    </linearGradient>
    <linearGradient
       id="linearGradient1694-2"
       x1="48.597"
       x2="48.597"
       y1="-1.8124"
       y2="3.8129"
       gradientUnits="userSpaceOnUse">
      <stop
         stop-color="#88c0d0"
         offset="0"
         id="stop228" />
      <stop
         stop-color="#5e81ac"
         offset="1"
         id="stop230" />
    </linearGradient>
    <filter
       id="filter7867"
       x="-0.024410161"
       y="-0.030204897"
       width="1.0488203"
       height="1.0604098"
       color-interpolation-filters="sRGB">
      <feGaussianBlur
         stdDeviation="0.25188229"
         id="feGaussianBlur233" />
    </filter>
    <filter
       id="filter1178-36"
       x="-0.047999482"
       y="-0.047999482"
       width="1.095999"
       height="1.095999"
       color-interpolation-filters="sRGB">
      <feGaussianBlur
         stdDeviation="0.30691668"
         id="feGaussianBlur236" />
    </filter>
    <filter
       id="b"
       x="-0.054034427"
       y="-0.027012486"
       width="1.1080689"
       height="1.054025"
       color-interpolation-filters="sRGB">
      <feGaussianBlur
         stdDeviation="0.45024187"
         id="feGaussianBlur22" />
    </filter>
    <filter
       id="c"
       x="-0.049579283"
       y="-0.027014512"
       width="1.0991586"
       height="1.054029"
       color-interpolation-filters="sRGB">
      <feGaussianBlur
         stdDeviation="0.45024187"
         id="feGaussianBlur25" />
    </filter>
    <filter
       id="d"
       x="-0.026988872"
       y="-0.098710192"
       width="1.0539777"
       height="1.1974204"
       color-interpolation-filters="sRGB">
      <feGaussianBlur
         stdDeviation="0.45024187"
         id="feGaussianBlur28" />
    </filter>
    <linearGradient
       id="e"
       x1="44"
       x2="24"
       y1="44"
       y2="4"
       gradientUnits="userSpaceOnUse"
       gradientTransform="matrix(0.26457812,0,0,0.26457812,2.1224658,1.6603758)">
      <stop
         stop-color="#c00010"
         offset="0"
         id="stop7"
         style="stop-color:#bf616a;stop-opacity:1;" />
      <stop
         stop-color="#ff5252"
         offset="1"
         id="stop9"
         style="stop-color:#d08770;stop-opacity:1;" />
    </linearGradient>
    <linearGradient
       id="f"
       x1="24"
       x2="4"
       y1="4"
       y2="44"
       gradientUnits="userSpaceOnUse"
       gradientTransform="matrix(0.26457812,0,0,0.26457812,2.1224658,1.6603758)">
      <stop
         stop-color="#006eeb"
         offset="0"
         id="stop2"
         style="stop-color:#5e81ac;stop-opacity:1;" />
      <stop
         stop-color="#33c5ff"
         offset="1"
         id="stop4"
         style="stop-color:#88c0d0;stop-opacity:1;" />
    </linearGradient>
    <linearGradient
       id="g"
       x1="44"
       x2="4"
       gradientUnits="userSpaceOnUse"
       gradientTransform="matrix(0.26457812,0,0,0.26457812,2.1224658,1.6603758)">
      <stop
         stop-color="#3b9900"
         offset="0"
         id="stop12"
         style="stop-color:#8fbcbb;stop-opacity:1;" />
      <stop
         stop-color="#2bf333"
         offset="1"
         id="stop14"
         style="stop-color:#a3be8c;stop-opacity:1;" />
    </linearGradient>
  </defs>
  <g
     transform="translate(-.00025546 -.11386)"
     id="g243">
    <rect
       transform="matrix(.99138 0 0 1 .072989 .0019055)"
       x=".79375"
       y=".90545"
       width="15.346"
       height="15.346"
       rx="3.0526"
       ry="3.0526"
       filter="url(#filter1178-36)"
       opacity=".15"
       stroke-linecap="round"
       stroke-linejoin="round"
       stroke-width="1.2489"
       style="mix-blend-mode:normal"
       id="rect241" />
  </g>
  <rect
     x=".92602"
     y=".92602"
     width="15.081"
     height="15.081"
     rx="3.0536"
     ry="3.0535"
     fill="url(#a)"
     stroke-width="1.0178"
     id="rect245" />
  <g
     id="g6523">
    <path
       d="m 24,4 2.938,33.3 17.06,6.703 z"
       filter="url(#b)"
       opacity="0.25"
       id="path37"
       transform="matrix(0.26457812,0,0,0.26457812,2.1224658,1.6603758)"
       style="opacity:0.35;fill:#2e3440;fill-opacity:1;fill-rule:evenodd;filter:url(#b)" />
    <path
       transform="matrix(0.26457812,0,0,0.26457812,2.1224658,1.6603758)"
       d="M 24,4 4,44 25.795,24.332 Z"
       filter="url(#c)"
       opacity="0.25"
       id="path39"
       style="opacity:0.35;fill:#2e3440;fill-opacity:1;fill-rule:evenodd;filter:url(#c)" />
    <path
       transform="matrix(0.26457812,0,0,0.26457812,2.1224658,1.6603758)"
       d="M 16.13,33.05 4,43.993 43.996,43.997 Z M 4.03,43.927 3.958,43.993 h 0.039 z"
       filter="url(#d)"
       opacity="0.25"
       id="path41"
       style="opacity:0.35;fill:#2e3440;fill-opacity:1;fill-rule:evenodd;filter:url(#d)" />
    <path
       d="M 8.4723407,2.7186883 9.2496712,11.52914 13.763374,13.302607 Z"
       fill="url(#e)"
       id="path43"
       style="display:inline;fill:url(#e);fill-rule:evenodd;stroke-width:0.264578" />
    <path
       d="M 8.4723407,2.7186883 3.1807783,13.301813 8.9472584,8.0980906 Z"
       fill="url(#f)"
       id="path45"
       style="display:inline;fill:url(#f);fill-rule:evenodd;stroke-width:0.264578" />
    <path
       d="m 6.3901109,10.404683 -3.2093326,2.895278 10.5820667,0.0011 z m -3.2013953,2.877816 -0.01905,0.01746 h 0.010319 z"
       fill="url(#g)"
       id="path47"
       style="display:inline;fill:url(#g);fill-rule:evenodd;stroke-width:0.264578" />
  </g>
</svg>

<svg width="64" height="64" version="1.1" viewBox="0 0 16.933 16.933" xmlns="http://www.w3.org/2000/svg">
 <defs>
  <linearGradient id="a" x1="8.587" x2="8.587" y1="15.747" y2="1.097" gradientTransform="matrix(1.0178 0 0 1.0178 -.15083 -.14268)" gradientUnits="userSpaceOnUse">
   <stop stop-color="#2e3440" offset="0"/>
   <stop stop-color="#4c566a" offset="1"/>
  </linearGradient>
  <filter id="filter1178-36" x="-.047999" y="-.047999" width="1.096" height="1.096" color-interpolation-filters="sRGB">
   <feGaussianBlur stdDeviation="0.30691668"/>
  </filter>
  <filter id="b" x="-.054034" y="-.027012" width="1.1081" height="1.054" color-interpolation-filters="sRGB">
   <feGaussianBlur stdDeviation="0.45024187"/>
  </filter>
  <filter id="c" x="-.049579" y="-.027015" width="1.0992" height="1.054" color-interpolation-filters="sRGB">
   <feGaussianBlur stdDeviation="0.45024187"/>
  </filter>
  <filter id="d" x="-.026989" y="-.09871" width="1.054" height="1.1974" color-interpolation-filters="sRGB">
   <feGaussianBlur stdDeviation="0.45024187"/>
  </filter>
  <linearGradient id="e" x1="44" x2="24" y1="44" y2="4" gradientTransform="matrix(.26458 0 0 .26458 2.1225 1.6604)" gradientUnits="userSpaceOnUse">
   <stop stop-color="#bf616a" offset="0"/>
   <stop stop-color="#d08770" offset="1"/>
  </linearGradient>
  <linearGradient id="f" x1="24" x2="4" y1="4" y2="44" gradientTransform="matrix(.26458 0 0 .26458 2.1225 1.6604)" gradientUnits="userSpaceOnUse">
   <stop stop-color="#5e81ac" offset="0"/>
   <stop stop-color="#88c0d0" offset="1"/>
  </linearGradient>
  <linearGradient id="g" x1="44" x2="4" gradientTransform="matrix(.26458 0 0 .26458 2.1225 1.6604)" gradientUnits="userSpaceOnUse">
   <stop stop-color="#8fbcbb" offset="0"/>
   <stop stop-color="#a3be8c" offset="1"/>
  </linearGradient>
 </defs>
 <g transform="translate(-.00025546 -.11386)">
  <rect transform="matrix(.99138 0 0 1 .072989 .0019055)" x=".79375" y=".90545" width="15.346" height="15.346" rx="3.0526" ry="3.0526" filter="url(#filter1178-36)" opacity=".15" stroke-linecap="round" stroke-linejoin="round" stroke-width="1.2489" style="mix-blend-mode:normal"/>
 </g>
 <rect x=".92602" y=".92602" width="15.081" height="15.081" rx="3.0536" ry="3.0535" fill="url(#a)" stroke-width="1.0178"/>
 <g fill-rule="evenodd">
  <g fill="#2e3440">
   <path transform="matrix(.26458 0 0 .26458 2.1225 1.6604)" d="m24 4 2.938 33.3 17.06 6.703z" filter="url(#b)" opacity=".35"/>
   <path transform="matrix(.26458 0 0 .26458 2.1225 1.6604)" d="m24 4-20 40 21.795-19.668z" filter="url(#c)" opacity=".35"/>
   <path transform="matrix(.26458 0 0 .26458 2.1225 1.6604)" d="m16.13 33.05-12.13 10.943 39.996 4e-3zm-12.1 10.877-0.072 0.066h0.039z" filter="url(#d)" opacity=".35"/>
  </g>
  <g stroke-width=".26458">
   <path d="m8.4723 2.7187 0.77733 8.8105 4.5137 1.7735z" fill="url(#e)"/>
   <path d="m8.4723 2.7187-5.2916 10.583 5.7665-5.2037z" fill="url(#f)"/>
   <path d="m6.3901 10.405-3.2093 2.8953 10.582 0.0011zm-3.2014 2.8778-0.01905 0.01746h0.010319z" fill="url(#g)"/>
  </g>
 </g>
</svg>
